**kern	**silbe
*ICvox	*
*A:	*
*M3/4	*
*clefG2	*
r;	.
=1	=1
2.r	.
=2	=2
2.r	.
=3	=3
2.r	.
=4	=4
2r	.
8r	.
8E	I'll
=5	=5
8e	al-
8[e	-ways
4.e]	_
8f#	re-
=6	=6
8e	-mem-
8[c#	-ber
4c#]	_
8r	.
8c#	the
=7	=7
2F#	song
8A	they
8d	were
=8	=8
8c#	pla-
4.B	-ying
8r	.
8E	The
=9	=9
8F#	first
4.A	time
8F#	we
8[G#	danced
=10	=10
4G#]	_
8r	.
8d	and
4f#	I
=11	=11
2e	knew
4r	.
=12	=12
2r	.
8c#	As
8d	we
=13	=13
4e	swayed
4.e	to
8f#	the
=14	=14
8e	mu-
8d	-sic,
4r	.
8r	.
8c#	and
=15	=15
2F#	held
8A	to
8d	each
=16	=16
8c#	o-
4.B	-ther,
4r	.
=17	=17
4F#	I
4G#	fell
8A	in
8[c#	love
=18	=18
2c#]	_
8B	with
8A	_
=19	=19
2A	you
4r	.
=20	=20
2r	.
8r	.
8G#	Could
=21	=21
4A	I
4G#	have
4B	this
=22	=22
4A	dance
4r	.
8F#	for
8G#	the
=23	=23
4A	rest
4F#	of
4E	my
=24	=24
4F#	life,
4r	.
8r	.
8E	Could
=25	=25
8G#	you
8[G#	be
4.G#]	_
8G#	my
=26	=26
8A	part-
4.G#	-ner
4r	.
=27	=27
4F#	e
4G#	_
8A	ry
8[B	night,
=28	=28
4.B]	_
8r	.
4r	.
=29	=29
4c#	when
4.c#	we're
8c#	to-
=30	=30
8d	-ge-
4.c#	-ther
4c#	it
=31	=31
2A	feels
4c#	so
=32	=32
4.A	right
8r	.
8r	.
8B	Could
=33	=33
4c#	I
4B	have
8A	this
8[E	dance
=34	=34
4E]	_
4r	.
8B	for
8c#	the
=35	=35
4d	rest
4c#	of
4B	my
=36	=36
2A	life
4r	.
=37	=37
2r	.
8r	.
8E	I'll
=38	=38
8e	al-
8[e	-ways
4.e]	_
8f#	re-
=39	=39
8e	-mem-
8[c#	-ber
4c#]	_
4r	.
=40	=40
4F#	that
4A	ma-
8d	-gic
8[c#	mo-
=41	=41
8c#]	_
4.B	-ment,
8r	.
8E	When
=42	=42
8F#	I
4.A	held
8F#	you
8[G#	close
=43	=43
4G#]	_
4r	.
4f#	to
=44	=44
2e	me
4r	.
=45	=45
2r	.
8r	.
8E	As
=46	=46
8e	we
8[e	move
4.e]	_
8f#	to-
=47	=47
8e	-ge-
8d	-ther,
4c#	_
4r	.
=48	=48
4F#	I
4.A	knew
8d	for-
=49	=49
8c#	-e-
4.B	-ver,
4r	.
=50	=50
4F#	you're
4G#	all
4A	I'll
=51	=51
2c#	e-
4B	-ver
=52	=52
2A	need
4r	.
=53	=53
2r	.
8r	.
8G#	Could
=54	=54
4A	I
4G#	have
4B	this
=55	=55
4A	dance
4r	.
8F#	for
8G#	the
=56	=56
4A	rest
4F#	of
4E	my
=57	=57
4F#	life,
4r	.
8r	.
8E	Could
=58	=58
8G#	you
8[G#	be
4.G#]	_
8G#	my
=59	=59
8A	part-
4.G#	-ner
4r	.
=60	=60
4F#	e
4G#	_
8A	ry
8[B	night,
=61	=61
4.B]	_
8r	.
4r	.
=62	=62
4c#	when
4.c#	we're
8c#	to-
=63	=63
8d	-ge-
4.c#	-ther
4c#	it
=64	=64
2A	feels
4c#	so
=65	=65
4.A	right
8r	.
8r	.
8B	Could
=66	=66
4c#	I
4B	have
8A	this
8[E	dance
=67	=67
4E]	_
4r	.
8B	for
8c#	the
=68	=68
4d	rest
4c#	of
4B	my
=69	=69
2A	life
4r	.
=70	=70
2r	.
8r	.
8G#	Could
=71	=71
4A	I
4G#	have
4B	this
=72	=72
4A	dance
4r	.
8F#	for
8G#	the
=73	=73
4A	rest
4F#	of
4E	my
=74	=74
4F#	life,
4r	.
8r	.
8E	Could
=75	=75
8G#	you
8[G#	be
4.G#]	_
8G#	my
=76	=76
8A	part-
4.G#	-ner
4r	.
=77	=77
4F#	e
4G#	_
8A	ry
8[B	night,
=78	=78
4.B]	_
8r	.
4r	.
=79	=79
4c#	when
4.c#	we're
8c#	to-
=80	=80
8d	-ge-
4.c#	-ther
4c#	it
=81	=81
2A	feels
4c#	so
=82	=82
4.A	right
8r	.
8r	.
8B	Could
=83	=83
4c#	I
4B	have
8A	this
8[E	dance
=84	=84
4E]	_
4r	.
8B	for
8c#	the
=85	=85
2.d	rest
=86	=86
2c#	of
8c#	my
8B	_
=87	=87
16c#	life
16B	_
8[A	_
2A]	_
=88	=88
2.r	.
=89	=89
2.r	.
=90	=90
2.r	.
=91	=91
r;	.
*-	*-
!!!ENC: Nathaniel Condit-Schultz